desktop/resources/assets/classification.svg

<svg width="16" height="16" viewBox="0 0 16 16" fill="none" xmlns="http://www.w3.org/2000/svg">
<path d="M10.8538 4.10086C11.0617 4.11927 11.3033 4.23318 11.5355 4.4653C11.7676 4.69743 11.8815 4.93907 11.8999 5.14692C11.9169 5.33928 11.8582 5.55682 11.6319 5.78309C11.1014 6.31355 10.1965 6.90211 9.11988 7.60234L9.05672 7.64342L8.35735 6.94405L8.39843 6.88088C9.09866 5.80427 9.68722 4.89933 10.2177 4.36888C10.444 4.1426 10.6615 4.08382 10.8538 4.10086ZM9.77973 8.36642C10.7905 7.70974 11.7488 7.08041 12.339 6.4902C12.7555 6.07365 12.9414 5.57164 12.896 5.05869C12.8519 4.56125 12.5962 4.11186 12.2426 3.7582C11.8889 3.40453 11.4395 3.14882 10.9421 3.10476C10.4291 3.05933 9.92711 3.24523 9.51057 3.66177C8.92036 4.25198 8.29103 5.21028 7.63435 6.22104L6.58571 5.1724C5.80466 4.39136 4.53833 4.39136 3.75728 5.1724L3.05018 5.87951C2.65965 6.27004 2.65965 6.9032 3.05018 7.29372L2.51984 7.82406C2.03169 8.31221 2.03169 9.10367 2.51984 9.59183L6.40893 13.4809C6.89709 13.9691 7.68854 13.9691 8.1767 13.4809L8.70703 12.9506C9.09756 13.3411 9.73072 13.3411 10.1212 12.9506L10.8284 12.2435C11.6094 11.4624 11.6094 10.1961 10.8284 9.41505L9.77973 8.36642ZM8.92335 8.92425L10.1212 10.1222C10.5118 10.5127 10.5118 11.1458 10.1212 11.5364L9.41414 12.2435L3.75728 6.58662L4.46439 5.87951C4.85491 5.48899 5.48808 5.48899 5.8786 5.87951L7.07652 7.07742L8.63633 8.63723L8.92335 8.92425ZM3.75728 8.00083L7.99992 12.2435L7.46959 12.7738C7.37196 12.8714 7.21367 12.8714 7.11604 12.7738L3.22695 8.88472C3.12932 8.78709 3.12932 8.6288 3.22695 8.53117L3.75728 8.00083Z" fill="#888"/>
</svg>

<svg xmlns="http://www.w3.org/2000/svg" width="16" height="16" fill="none"><path fill="#888" d="M10.854 4.1c.208.02.45.133.682.365s.346.474.364.682c.017.192-.042.41-.268.636-.53.53-1.435 1.12-2.512 1.82l-.063.04-.7-.699.041-.063c.7-1.077 1.29-1.982 1.82-2.512.226-.226.444-.285.636-.268M9.78 8.367c1.01-.656 1.969-1.286 2.559-1.876.416-.416.602-.918.557-1.431-.044-.498-.3-.947-.653-1.3s-.803-.61-1.3-.654c-.514-.046-1.016.14-1.432.557-.59.59-1.22 1.548-1.877 2.559L6.586 5.172a2 2 0 0 0-2.829 0l-.707.708a1 1 0 0 0 0 1.414l-.53.53a1.25 1.25 0 0 0 0 1.768l3.889 3.889a1.25 1.25 0 0 0 1.768 0l.53-.53a1 1 0 0 0 1.414 0l.707-.708a2 2 0 0 0 0-2.828zm-.857.558 1.198 1.198a1 1 0 0 1 0 1.414l-.707.707-5.657-5.656.707-.707a1 1 0 0 1 1.415 0l1.198 1.197 1.56 1.56zm-5.166-.923L8 12.244l-.53.53a.25.25 0 0 1-.354 0l-3.889-3.89a.25.25 0 0 1 0-.353z"/></svg>
